public/tech/stripe.svg

<?xml version="1.0" encoding="UTF-8"?>
<svg width="512px" height="214px" viewBox="0 0 512 214" version="1.1" xmlns="http://www.w3.org/2000/svg" preserveAspectRatio="xMidYMid">
    <title>Stripe</title>
    <g>
        <path d="M512,110.08 C512,73.6711111 494.364444,44.9422222 460.657778,44.9422222 C426.808889,44.9422222 406.328889,73.6711111 406.328889,109.795556 C406.328889,152.604444 430.506667,174.222222 465.208889,174.222222 C482.133333,174.222222 494.933333,170.382222 504.604444,164.977778 L504.604444,136.533333 C494.933333,141.368889 483.84,144.355556 469.76,144.355556 C455.964444,144.355556 443.733333,139.52 442.168889,122.737778 L511.715556,122.737778 C511.715556,120.888889 512,113.493333 512,110.08 L512,110.08 Z M441.742222,96.5688889 C441.742222,80.4977778 451.555556,73.8133333 460.515556,73.8133333 C469.191111,73.8133333 478.435556,80.4977778 478.435556,96.5688889 L441.742222,96.5688889 Z M351.431111,44.9422222 C337.493333,44.9422222 328.533333,51.4844444 323.555556,56.0355556 L321.706667,47.2177778 L290.417778,47.2177778 L290.417778,213.048889 L325.973333,205.511111 L326.115556,165.262222 C331.235556,168.96 338.773333,174.222222 351.288889,174.222222 C376.746667,174.222222 399.928889,153.742222 399.928889,108.657778 C399.786667,67.4133333 376.32,44.9422222 351.431111,44.9422222 L351.431111,44.9422222 Z M342.897778,142.933333 C334.506667,142.933333 329.528889,139.946667 326.115556,136.248889 L325.973333,83.4844444 C329.671111,79.36 334.791111,76.5155556 342.897778,76.5155556 C355.84,76.5155556 364.8,91.0222222 364.8,109.653333 C364.8,128.711111 355.982222,142.933333 342.897778,142.933333 L342.897778,142.933333 Z M241.493333,36.5511111 L277.191111,28.8711111 L277.191111,1.42108547e-14 L241.493333,7.53777778 L241.493333,36.5511111 Z M241.493333,47.36 L277.191111,47.36 L277.191111,171.804444 L241.493333,171.804444 L241.493333,47.36 Z M203.235556,57.8844444 L200.96,47.36 L170.24,47.36 L170.24,171.804444 L205.795556,171.804444 L205.795556,87.4666667 C214.186667,76.5155556 228.408889,78.5066667 232.817778,80.0711111 L232.817778,47.36 C228.266667,45.6533333 211.626667,42.5244444 203.235556,57.8844444 Z M132.124444,16.4977778 L97.4222222,23.8933333 L97.28,137.813333 C97.28,158.862222 113.066667,174.364444 134.115556,174.364444 C145.777778,174.364444 154.311111,172.231111 159.004444,169.671111 L159.004444,140.8 C154.453333,142.648889 131.982222,149.191111 131.982222,128.142222 L131.982222,77.6533333 L159.004444,77.6533333 L159.004444,47.36 L131.982222,47.36 L132.124444,16.4977778 Z M35.9822222,83.4844444 C35.9822222,77.9377778 40.5333333,75.8044444 48.0711111,75.8044444 C58.88,75.8044444 72.5333333,79.0755556 83.3422222,84.9066667 L83.3422222,51.4844444 C71.5377778,46.7911111 59.8755556,44.9422222 48.0711111,44.9422222 C19.2,44.9422222 0,60.0177778 0,85.1911111 C0,124.444444 54.0444444,118.186667 54.0444444,135.111111 C54.0444444,141.653333 48.3555556,143.786667 40.3911111,143.786667 C28.5866667,143.786667 13.5111111,138.951111 1.56444444,132.408889 L1.56444444,166.257778 C14.7911111,171.946667 28.16,174.364444 40.3911111,174.364444 C69.9733333,174.364444 90.3111111,159.715556 90.3111111,134.257778 C90.1688889,91.8755556 35.9822222,99.4133333 35.9822222,83.4844444 Z" fill="#635BFF"></path>
    </g>
</svg>

<svg xmlns="http://www.w3.org/2000/svg" width="512" height="214" preserveAspectRatio="xMidYMid" viewBox="0 0 512 214"><title>Stripe</title><path fill="#635bff" d="M512 110.08c0-36.409-17.636-65.138-51.342-65.138-33.85 0-54.33 28.73-54.33 64.854 0 42.808 24.179 64.426 58.88 64.426 16.925 0 29.725-3.84 39.396-9.244v-28.445c-9.67 4.836-20.764 7.823-34.844 7.823-13.796 0-26.027-4.836-27.591-21.618h69.547c0-1.85.284-9.245.284-12.658m-70.258-13.511c0-16.071 9.814-22.756 18.774-22.756 8.675 0 17.92 6.685 17.92 22.756zm-90.31-51.627c-13.939 0-22.899 6.542-27.876 11.094l-1.85-8.818h-31.288v165.83l35.555-7.537.143-40.249c5.12 3.698 12.657 8.96 25.173 8.96 25.458 0 48.64-20.48 48.64-65.564-.142-41.245-23.609-63.716-48.498-63.716m-8.534 97.991c-8.391 0-13.37-2.986-16.782-6.684l-.143-52.765c3.698-4.124 8.818-6.968 16.925-6.968 12.942 0 21.902 14.506 21.902 33.137 0 19.058-8.818 33.28-21.902 33.28M241.493 36.551l35.698-7.68V0l-35.698 7.538zm0 10.809h35.698v124.444h-35.698zm-38.257 10.524L200.96 47.36h-30.72v124.444h35.556V87.467c8.39-10.951 22.613-8.96 27.022-7.396V47.36c-4.551-1.707-21.191-4.836-29.582 10.524m-71.112-41.386-34.702 7.395-.142 113.92c0 21.05 15.787 36.551 36.836 36.551 11.662 0 20.195-2.133 24.888-4.693V140.8c-4.55 1.849-27.022 8.391-27.022-12.658V77.653h27.022V47.36h-27.022zM35.982 83.484c0-5.546 4.551-7.68 12.09-7.68 10.808 0 24.461 3.272 35.27 9.103V51.484c-11.804-4.693-23.466-6.542-35.27-6.542C19.2 44.942 0 60.018 0 85.192c0 39.252 54.044 32.995 54.044 49.92 0 6.541-5.688 8.675-13.653 8.675-11.804 0-26.88-4.836-38.827-11.378v33.849c13.227 5.689 26.596 8.106 38.827 8.106 29.582 0 49.92-14.648 49.92-40.106-.142-42.382-54.329-34.845-54.329-50.774"/></svg>
